X: 4815
T: Boys Of The Town, The
R: jig
M: 6/8
K: Gmajor
GFG Bdg|edB dBA|~G3 Bdg|edB AFD|
GFG Bdg|edB dgb|age ged|1 edB AFD:|2 edB ABA||
~e3 efg|~d3 dBd|~e3 efg|age dBd|
~e3 efg|~d3 dBG|AGA BGD|1 EDE GBd:|2 EDE G2D||

